X: 31757
T: Pathway To The Well, The
R: jig
M: 6/8
K: Dmajor
D2 F AFF|BFF AFE|D2 F AGF|E2 F GFE|
D2 F AFF|BFF A2 B|dcd efg|1 fdc dAF:|2 fdc d2 z||
dcd fed|afd fed|B2 g gfg|B2 g gfe|
dcd fed|afd fed|dcB AGF|ABc d2 A|
dcd fed|afd fed|B2 g gfg|B2 g gfe|
~f3 gfg|agf gfe|fed cAF|DFA d2 z||

